X: 176
T: The Humours of Glyn
N:"Gheerfully" "collected by F. O'Neill"
B:O'Neill's 176
Z:Transcribed by henrik.norbeck@mailbox.swipnet.se
M:6/8
L:1/8
K:Bm
A|B(d/c/B/A/) .B(FA)|.d.d.d .d(FA)|B(d/c/B/A/) .B(FA)|(DFA) B2 A|
B(d/c/B/A/) .B(FA)|.d.d.d .d(FA)|GBG FAF|DFA B2||
B|(Ad).d dcd|(dfd) (ecA)|(ga/g/f/e/) .f(dB)|AFA B2 A|
dfa b3|(ab/a/g/f/) a3|(ga/g/f/e/) fdB|AFA B2||


